svg/u1fad4.svg

<svg viewBox="0 0 128 128" xmlns="http://www.w3.org/2000/svg">
  <path d="M36.02,63.39l-18.1,4.7L6.04,83.56l0.83,12.16l8.01,10.91l16.85,8.98l16.44,4.01l12.57-2.21 l6.22-6.35l4.7-4.01c0,0,2.76-4.83,4.01-6.77c1.24-1.93,2.9-4.01,2.9-4.01s1.81-0.64,3.28-0.39c2.29,0.38,3.7,1.2,3.7,1.2 l4.48-20.56l17.68-17.13c0,0,12.02-9.67,12.02-11.33s-0.14-15.47-0.14-15.47L36.02,63.39z" fill="#CC701F"/>
  <path d="M25.09,70.47c0,0-4.73,2.55-9.9,8.98c-2.31,2.87-3.46,6.7-3.46,6.7l27.76,12.88l20.68,13.49 c0,0,3.02-2.49,3.97-3.58c2.08-2.39,2.88-4.49,2.88-4.49l-4.26-15.66L25.09,70.47z" fill="#E89806"/>
  <path d="M11.73,89.7c0,0,1.27,4.49,3.69,7.83c2.42,3.34,4.61,5.99,11.52,9.79s17.28,7.54,24.99,7.6 c7.22,0.06,9.09-2.94,9.74-4.38c0.36-0.8,0.47-1.55,0.47-1.55s-0.95-0.6-5.21-1.23c-4.23-0.62-25.46-8.48-25.46-8.48L12.38,88.14 L11.73,89.7z" fill="#FFD61C"/>
  <path d="M11.68,86.39c0,0,0.58-3.5,4.49-4.9s9.96-2.48,24.61,4.52c14.64,7,17.36,9.37,20.47,15.8 c0.7,1.44,1.27,5.93,0.86,7.22c-0.01,0.03-1.05-0.04-1.78-0.12c-1.52-0.18-19.02-5.72-19.02-5.72l-19.84-9.68l-9.86-5.72 L11.68,86.39z" fill="#FEE942"/>
  <path d="M14.57,91.41c0,0,6.48,3.62,9.39,5.25c2.92,1.63,7.21,4.62,11.08,6.13c7.93,3.09,18.52,5.6,18.52,5.6 s1.55,1.63,3.41,2.04c1.87,0.41,3.4,0.14,3.88-0.88c0.5-1.05-0.03-3.73-3.35-4.32c-3.33-0.58-5.1-0.53-5.1-0.53 s-9.48-2.45-17.71-6.13c-2.67-1.19-18.26-10.56-19.02-11.03c-0.76-0.47-2.6-2.74-4.73-1.87c-2.37,0.97-1.18,4.36,0.18,5.31 C12.7,92.11,14.57,91.41,14.57,91.41z" fill="#FEF58A"/>
  <path d="M26.75,90.31c-0.45,0.49-0.58,2.16,1.34,2.74s2.33-1.69,1.52-2.51 C28.79,89.72,27.39,89.61,26.75,90.31z" fill="#F6AF41"/>
  <path d="M35.47,86.93c-0.78,0.68-0.47,2.1,0.58,2.74c1.05,0.64,2.04,0.53,2.51-0.12s-0.12-1.87-0.7-2.28 C37.28,86.87,36.35,86.17,35.47,86.93z" fill="#F6AF41"/>
  <path d="M20.24,83.53c-0.54,0.65,0.42,1.78,1.56,1.69c1.14-0.08,1.31-1.14,0.97-1.56 C22.44,83.24,21.09,82.52,20.24,83.53z" fill="#F6AF41"/>
  <path d="M16.95,84.93c-0.72,0.57-0.21,2.03,0.76,2.41c1.2,0.47,2.37-0.04,2.03-1.52 C19.58,85.11,18.34,83.83,16.95,84.93z" fill="#F6AF41"/>
  <path d="M44.67,109.65c0,1.23,0.97,1.61,1.86,1.69s1.73-0.17,1.65-1.35s-0.93-1.52-1.78-1.52 C45.73,108.47,44.67,108.64,44.67,109.65z" fill="#F6AF41"/>
  <path d="M22.2,71.65l-2.89,0.32c0,0-11.79,5.36-11.26,5.04c0.54-0.32,0.54-2.25,4.82-6.65 s16.62-16.19,19.84-19.62c3.22-3.43,14.6-16.95,18.44-22.19c7.61-10.4,11.79-17.37,13.94-19.08c2.14-1.72,5.04-2.36,6.86-2.68 c1.82-0.32,11.26,0.32,25.09,6.86s22.19,10.83,23.91,12.97s3.22,3.86,3.22,8.36c0,3.76,0.32,9.97-1.39,12.12s-6.22,5.9-6.22,5.9 l3.18-4.94l0.25-13.18l-2.89-0.43l-7.72,9.01L89.96,73.58L73.45,95.24l-5.9,6.43c0,0,0.43,3,1.29,4.07 c0.86,1.07,2.82,1.29,2.82,1.29s-1.2,3.01-2.25,4.31c-1.73,2.15-3.72,4.13-3.72,4.13l1.32-8.66l-2.14-9.11c0,0,1.61-0.32-3.54-4.93 c-5.15-4.61-7.4-5.79-8.68-6.75c-1.29-0.96-11.26-5.47-12.54-5.79c-1.29-0.32-14.58-3.97-14.58-3.97l-4.41-0.01 c0,0,0.76-1.49,1.4-2.24c0.64-0.75,1.82-2.36,1.82-2.36H22.2z" fill="#FBDF96"/>
  <path d="M23.21,71.94l-2.67-0.31c0.19-0.2,18.91-20.53,31.41-35.04c2.9-3.36,6.98-9.71,10.26-14.81 c2.25-3.51,4.2-6.53,5.29-7.87c2.69-3.29,7.65-6.81,7.93-7.01c0,0,0.84,0.07,1.51,0.18c0.81,0.14,1.88,0.32,1.88,0.32 c-0.07,0.05-7.05,4.93-9.54,7.97c-1.01,1.23-2.92,4.21-5.14,7.66c-3.32,5.16-7.45,11.58-10.45,15.07 C41.16,52.64,23.39,71.74,23.21,71.94z" fill="#F9C86F"/>
  <path d="M38.63,73.9l-3.02-1.06c0.11-0.13,11.3-14.41,16.33-20.73c5.12-6.44,17.55-23.28,20.43-27.76 c2.77-4.3,5.33-7.74,8.82-10.6c3.26-2.66,6.56-3.78,6.72-3.85l2.53,0.91c-0.95,0.55-4.73,2.21-7.79,4.72 c-3.26,2.67-5.69,5.95-8.35,10.07c-2.91,4.51-15.58,22-20.73,28.47C48.53,60.4,38.74,73.77,38.63,73.9z" fill="#F9C86F"/>
  <path d="M49.82,78.39l-2.74-1.1c0.15-0.21,14.91-21.34,20.23-28.82c1.19-1.67,2.64-3.76,4.23-6.04 c5.78-8.29,11.58-17.67,16.55-22.19c4.85-4.42,10.01-5.86,10.26-5.95l3.15,1.49c-0.05,0.02-7.34,2.11-11.61,6.38 c-3.44,3.44-11.07,14.18-16.49,21.96c-1.6,2.29-6.43,9.35-7.51,11.1C59.44,65.68,49.97,78.18,49.82,78.39z" fill="#F9C86F"/>
  <path d="M58.57,85.52l-1.72-2.45c0.05-0.05,4.51-4.07,10.92-13.9c2.18-3.34,5.14-7.72,8.19-12.51 c6.19-9.73,12.59-19.79,14.66-22.36c0.73-0.91,1.44-1.82,2.15-2.73c2.21-2.87,4.5-5.83,7.47-8.33c3.15-2.66,7.15-4.37,7.37-4.47 l2.54,1.27c-0.05,0.02-4.69,2.44-7.6,4.9c-2.78,2.35-5.71,5.14-7.95,8.04c-0.71,0.92-1.43,1.85-2.18,2.77 c-2,2.47-8.65,12.93-14.51,22.15c-3.05,4.8-5.94,9.33-8.12,12.68C63.26,80.57,58.78,85.3,58.57,85.52z" fill="#F9C86F"/>
  <path d="M64.76,92.18l-0.98-2.29c0.8-1.03,8.83-9.39,13.66-17.63c4.98-8.49,13.99-23.33,17.53-28.18 c3.55-4.88,9.58-12.1,13.54-15.74c3.74-3.44,7.55-4.97,7.76-5.06l2.29,1.39c-0.05,0.02-4.72,2.21-8.16,5.38 c-3.85,3.55-10.08,10.59-13.56,15.38c-3.49,4.79-12.45,19.54-17.4,27.99C74.47,81.88,65.15,91.76,64.76,92.18z" fill="#F9C86F"/>
  <path d="M71.96,100.84c-0.74,1.1-3.36,5.11-4.06,5.22c-0.7,0.11,0.54-3.7,0.11-4.26 c-0.86-1.13,1.64-3.71,2.07-4.35c0.44-0.64,13.51-17.47,20.04-26.67c3.67-5.16,7.54-11.39,10.96-16.89 c2.75-4.41,5.12-8.22,6.84-10.62l1.14-1.59c4.97-6.95,7.91-10.86,10.64-10.16c0.76,0.19,1.4,0.75,1.69,1.72 c0.84,2.85,0.46,14.02-0.82,15.91c-0.6,0.89-2.08,2.22-5.36,5.14c-2.59,2.31-6.14,5.46-10.19,9.34l-1.91,1.82 c-5.25,5.01-10.17,10.42-11.33,12.1c-0.71,1.12-2.55,7.59-3.35,13.53c-0.46,3.36-0.48,7.64-0.8,7.66 c-0.88,0.06-3.83-1.36-3.71-2.87S86,85.52,87.49,79.47C80.14,89.36,72.79,99.6,71.96,100.84z M117.82,36.1 c-0.24-0.98-4.18,4.35-6.31,7.33l-1.14,1.6c-1.67,2.31-3.95,6.46-6.66,10.82c-2.77,4.44-4.97,7.93-8,12.41 c1.86-1.81,3.08-2.8,5.34-4.96l1.91-1.82c4.09-3.91,7.66-7.09,10.27-9.41c2.39-2.13,3.7-3.27,4.11-3.89 C118.01,46.83,118.55,39.78,117.82,36.1z M118.15,34.71" fill="#F4B13A"/>
  <path d="M49.96,121.31c-4.69,0-10.42-0.65-17.79-3.41C7.49,108.65,2.71,94.27,3.65,87.04 c0.58-4.45,2.92-10.56,8.59-14.19c6.51-4.15,15.85-4.59,26.99-0.86c21.74,7.29,28.53,21.26,29.1,22.59 c0.57,1.33,2.34,3.84,1.07,4.59c-1.1,0.65-1.72-1.44-2.41-2.73c-0.69-1.28-1.88-3.42-4.37-6.31c-3.89-4.53-12.3-10.92-25.1-14.96 C27.49,71.99,20,72.83,14.54,76.32c-5.83,3.72-6.4,8.13-6.71,11.53c-0.53,5.68,3.71,18.2,26.07,26.58 c14.26,5.34,21.99,3.02,26.02,1.01c2.94-1.47,4.64-3.96,5.09-6.77c0.75-4.66,1.42-16.49-24.12-26.52 c-8.11-3.19-17.32-3.43-17.91-3.47c-0.9-0.06-1.9-0.06-2.01-1.51c-0.11-1.4,1.09-1.59,1.68-1.62C23.24,75.5,32,75.25,41.51,79 c28.22,11.13,28.16,24.77,27.25,30.38c-0.64,3.99-2.89,6.86-6.77,9.12C59.43,120,55.27,121.31,49.96,121.31z" fill="#FFF6AD"/>
  <path d="M49.01,35.32c0,0-8.69,4.38-9.06,5.03s-0.35,2.41-0.13,2.24c1.98-1.6,8.27-3.84,23.55,3.67 s22.04,13.79,24.51,20.58c0.72,1.98,1.35,3.77,1.69,5.73c0.74,4.23,0.78,7.41,1.01,8.39c0.38-0.23,1.22-1.34,1.22-1.34l5.4-7.25 c0,0-10.03-22.15-10.59-22.61S61.15,36.99,61.15,36.99S49.29,34.95,49.01,35.32z" fill="#CC701F"/>
  <path d="M53.09,34.21c0,0-11.96,4.46-12.79,4.92c-0.83,0.46-0.66,2.25-0.63,2.8 c1.83-2.08,5.33-2.71,9.13-2.34c3.8,0.37,9.67,2.21,9.67,2.21s1.57,1.95,4.35,2.87c2.78,0.93,5.83,1.06,5.83,1.06 s14.51,9.24,18.15,15.06c3.86,6.16,4.26,10.24,4.75,14.1c0.23,1.76,0.21,4.41,0.26,4.74c7.13-6.81,3.14-9.11,3.14-9.11 s0.09-11.39-0.93-12.13c-1.02-0.74-13.62-10.47-13.62-10.47l-1.48-4.45l-3.43-1.85l15.28-8.06c0,0,1.39-4.54-1.67-3.15 c-3.06,1.39-17.24,7.2-17.24,7.2l-2.94-1.71l-5.16-2.36c0,0-1.59-1.38-2.05-1.75c-0.46-0.37-9.74-15.64-9.74-15.64l-3.06,0.19 l6.39,17.32L53.09,34.21z" fill="#F4B13A"/>
  <path d="M57.71,40.15c0,0-0.36-1.65-0.25-2.56c0.1-0.85,0.85-1.65,0.85-1.65s-3.77-8.95-4.41-10.62 c-0.86-2.26-2.78-8.3-2.41-8.67s3.06,7.32,4.11,9.47c0.71,1.46,3.91,8.97,3.91,8.97s1.16-1.09,1.69-1.46s1.44-1.07,1.44-1.07 s-3.9-7-5.35-10.96S53.4,5.98,53.35,6.14s-2.73,1.6-3.64,1.92s-4.48,0.58-4.48,1.11s1.84,10.61,4.14,15.9 c2.3,5.29,3.92,7.49,3.92,7.49s-5.22-0.92-7.09-0.12c-1.87,0.8-5.7,3.19-6.47,7.55c0,0.01,3.89-2.04,9.02-1.56 C52.23,38.77,57.71,40.15,57.71,40.15z" fill="#FFF9AF"/>
  <path d="M66.63,44.06c-0.32,0.16-3.44-0.27-5.41-1.6c-1.26-0.85-2.68-2.53-1.82-4.62 c0.86-2.09,4.32-4.4,4.32-4.4s1.04-0.41,3.04,0.4c2.05,0.83,2.73,2.3,2.73,2.3s-2.66,3.05-3.04,4.65 C66.07,42.4,66.63,44.06,66.63,44.06z" fill="#FFF9AF"/>
  <path d="M69.1,39.94c-0.16-0.43,0.04-1.39,0.32-1.82c0.57-0.9,0.88-1.02,0.88-1.02s2.25-0.21,8.29-3.64 c6.04-3.42,11.71-6.9,13.05-7.97c1.34-1.07,3.64-3.26,3.64-3.26s2.83,2.03,3.9,4.28s1.87,5.24,1.87,5.24s-10.43,5.88-14.81,7.54 c-4.38,1.66-15.67,5.61-15.67,5.61s-1.18-1.58-1.18-2.27s3.37-0.79,11.02-4.36c3.86-1.8,8.34-4.44,8.02-5.13s-5.66,1.81-11.12,4.22 C75.47,38.18,69.1,39.94,69.1,39.94z" fill="#FFF9AF"/>
  <path d="M78.93,43.47c0,0-1.57,1.5-2.48,2.3c-0.91,0.8-2.03,1.71-2.03,1.71s4.04,2.33,7.67,5.21 c3.34,2.64,6.25,6.21,7.21,8.08s2.86,5.71,3.55,12.34c0.32,3.11,0.16,5.35,0.16,5.35s1.43-0.74,3.34-3.89 c1.68-2.77,1.98-3.78,2.14-4.64c0.16-0.86,0.29-6.54-2.3-12.35C92.86,50.15,78.93,43.47,78.93,43.47z" fill="#FFF9AF"/>
</svg>

<svg viewBox="0 0 128 128" xmlns="http://www.w3.org/2000/svg">
  <defs/>
  <path d="M36.02,63.39 L17.92,68.09 L6.04,83.56 L6.87,95.72 L14.88,106.63 L31.73,115.61 L48.17,119.62 L60.74,117.41 L66.96,111.06 L71.66,107.05 C71.66,107.05 74.42,102.22 75.67,100.28 C76.91,98.35 78.57,96.27 78.57,96.27 C78.57,96.27 80.38,95.63 81.85,95.88 C84.14,96.26 85.55,97.08 85.55,97.08 L90.03,76.52 L107.71,59.39 C107.71,59.39 119.73,49.72 119.73,48.06 C119.73,46.4 119.59,32.59 119.59,32.59 L36.02,63.39 Z" fill="#CC701F"/>
  <path d="M25.09,70.47 C25.09,70.47 20.36,73.02 15.19,79.45 C12.88,82.32 11.73,86.15 11.73,86.15 L39.49,99.03 L60.17,112.52 C60.17,112.52 63.19,110.03 64.14,108.94 C66.22,106.55 67.02,104.45 67.02,104.45 L62.76,88.79 L25.09,70.47 Z" fill="#E89806"/>
  <path d="M11.73,89.7 C11.73,89.7 13,94.19 15.42,97.53 C17.84,100.87 20.03,103.52 26.94,107.32 C33.85,111.12 44.22,114.86 51.93,114.92 C59.15,114.98 61.02,111.98 61.67,110.54 C62.03,109.74 62.14,108.99 62.14,108.99 C62.14,108.99 61.19,108.39 56.93,107.76 C52.7,107.14 31.47,99.28 31.47,99.28 L12.38,88.14 L11.73,89.7 Z" fill="#FFD61C"/>
  <path d="M11.68,86.39 C11.68,86.39 12.26,82.89 16.17,81.49 C20.08,80.09 26.13,79.01 40.78,86.01 C55.42,93.01 58.14,95.38 61.25,101.81 C61.95,103.25 62.52,107.74 62.11,109.03 C62.1,109.06 61.06,108.99 60.33,108.91 C58.81,108.73 41.31,103.19 41.31,103.19 L21.47,93.51 L11.61,87.79 L11.68,86.39 Z" fill="#FEE942"/>
  <path d="M14.57,91.41 C14.57,91.41 21.05,95.03 23.96,96.66 C26.88,98.29 31.17,101.28 35.04,102.79 C42.97,105.88 53.56,108.39 53.56,108.39 C53.56,108.39 55.11,110.02 56.97,110.43 C58.84,110.84 60.37,110.57 60.85,109.55 C61.35,108.5 60.82,105.82 57.5,105.23 C54.17,104.65 52.4,104.7 52.4,104.7 C52.4,104.7 42.92,102.25 34.69,98.57 C32.02,97.38 16.43,88.01 15.67,87.54 C14.91,87.07 13.07,84.8 10.94,85.67 C8.57,86.64 9.76,90.03 11.12,90.98 C12.7,92.11 14.57,91.41 14.57,91.41 Z" fill="#FEF58A"/>
  <path d="M26.75,90.31 C26.3,90.8 26.17,92.47 28.09,93.05 C30.01,93.63 30.42,91.36 29.61,90.54 C28.79,89.72 27.39,89.61 26.75,90.31 Z" fill="#F6AF41"/>
  <path d="M35.47,86.93 C34.69,87.61 35,89.03 36.05,89.67 C37.1,90.31 38.09,90.2 38.56,89.55 C39.03,88.9 38.44,87.68 37.86,87.27 C37.28,86.87 36.35,86.17 35.47,86.93 Z" fill="#F6AF41"/>
  <path d="M20.24,83.53 C19.7,84.18 20.66,85.31 21.8,85.22 C22.94,85.14 23.11,84.08 22.77,83.66 C22.44,83.24 21.09,82.52 20.24,83.53 Z" fill="#F6AF41"/>
  <path d="M16.95,84.93 C16.23,85.5 16.74,86.96 17.71,87.34 C18.91,87.81 20.08,87.3 19.74,85.82 C19.58,85.11 18.34,83.83 16.95,84.93 Z" fill="#F6AF41"/>
  <path d="M44.67,109.65 C44.67,110.88 45.64,111.26 46.53,111.34 C47.42,111.42 48.26,111.17 48.18,109.99 C48.1,108.81 47.25,108.47 46.4,108.47 C45.73,108.47 44.67,108.64 44.67,109.65 Z" fill="#F6AF41"/>
  <path d="M22.2,71.65 L19.31,71.97 C19.31,71.97 7.52,77.33 8.05,77.01 C8.59,76.69 8.59,74.76 12.87,70.36 C17.15,65.96 29.49,54.17 32.71,50.74 C35.93,47.31 47.31,33.79 51.15,28.55 C58.76,18.15 62.94,11.18 65.09,9.47 C67.23,7.75 70.13,7.11 71.95,6.79 C73.77,6.47 83.21,7.11 97.04,13.65 C110.87,20.19 119.23,24.48 120.95,26.62 C122.67,28.76 124.17,30.48 124.17,34.98 C124.17,38.74 124.49,44.95 122.78,47.1 C121.07,49.25 116.56,53 116.56,53 L119.74,48.06 L119.99,34.88 L117.1,34.45 L109.38,43.46 L89.96,73.58 L73.45,95.24 L67.55,101.67 C67.55,101.67 67.98,104.67 68.84,105.74 C69.7,106.81 71.66,107.03 71.66,107.03 C71.66,107.03 70.46,110.04 69.41,111.34 C67.68,113.49 65.69,115.47 65.69,115.47 L67.01,106.81 L64.87,97.7 C64.87,97.7 66.48,97.38 61.33,92.77 C56.18,88.16 53.93,86.98 52.65,86.02 C51.36,85.06 41.39,80.55 40.11,80.23 C38.82,79.91 25.53,76.26 25.53,76.26 L21.12,76.25 C21.12,76.25 21.88,74.76 22.52,74.01 C23.16,73.26 24.34,71.65 24.34,71.65 L22.2,71.65 Z" fill="#FBDF96"/>
  <path d="M23.21,71.94 L20.54,71.63 C20.73,71.43 39.45,51.1 51.95,36.59 C54.85,33.23 58.93,26.88 62.21,21.78 C64.46,18.27 66.41,15.25 67.5,13.91 C70.19,10.62 75.15,7.1 75.43,6.9 C75.43,6.9 76.27,6.97 76.94,7.08 C77.75,7.22 78.82,7.4 78.82,7.4 C78.75,7.45 71.77,12.33 69.28,15.37 C68.27,16.6 66.36,19.58 64.14,23.03 C60.82,28.19 56.69,34.61 53.69,38.1 C41.16,52.64 23.39,71.74 23.21,71.94 Z" fill="#F9C86F"/>
  <path d="M38.63,73.9 L35.61,72.84 C35.72,72.71 46.91,58.43 51.94,52.11 C57.06,45.67 69.49,28.83 72.37,24.35 C75.14,20.05 77.7,16.61 81.19,13.75 C84.45,11.09 87.75,9.97 87.91,9.9 L90.44,10.81 C89.49,11.36 85.71,13.02 82.65,15.53 C79.39,18.2 76.96,21.48 74.3,25.6 C71.39,30.11 58.72,47.6 53.57,54.07 C48.53,60.4 38.74,73.77 38.63,73.9 Z" fill="#F9C86F"/>
  <path d="M49.82,78.39 L47.08,77.29 C47.23,77.08 61.99,55.95 67.31,48.47 C68.5,46.8 69.95,44.71 71.54,42.43 C77.32,34.14 83.12,24.76 88.09,20.24 C92.94,15.82 98.1,14.38 98.35,14.29 L101.5,15.78 C101.45,15.8 94.16,17.89 89.89,22.16 C86.45,25.6 78.82,36.34 73.4,44.12 C71.8,46.41 66.97,53.47 65.89,55.22 C59.44,65.68 49.97,78.18 49.82,78.39 Z" fill="#F9C86F"/>
  <path d="M58.57,85.52 L56.85,83.07 C56.9,83.02 61.36,79 67.77,69.17 C69.95,65.83 72.91,61.45 75.96,56.66 C82.15,46.93 88.55,36.87 90.62,34.3 C91.35,33.39 92.06,32.48 92.77,31.57 C94.98,28.7 97.27,25.74 100.24,23.24 C103.39,20.58 107.39,18.87 107.61,18.77 L110.15,20.04 C110.1,20.06 105.46,22.48 102.55,24.94 C99.77,27.29 96.84,30.08 94.6,32.98 C93.89,33.9 93.17,34.83 92.42,35.75 C90.42,38.22 83.77,48.68 77.91,57.9 C74.86,62.7 71.97,67.23 69.79,70.58 C63.26,80.57 58.78,85.3 58.57,85.52 Z" fill="#F9C86F"/>
  <path d="M64.76,92.18 L63.78,89.89 C64.58,88.86 72.61,80.5 77.44,72.26 C82.42,63.77 91.43,48.93 94.97,44.08 C98.52,39.2 104.55,31.98 108.51,28.34 C112.25,24.9 116.06,23.37 116.27,23.28 L118.56,24.67 C118.51,24.69 113.84,26.88 110.4,30.05 C106.55,33.6 100.32,40.64 96.84,45.43 C93.35,50.22 84.39,64.97 79.44,73.42 C74.47,81.88 65.15,91.76 64.76,92.18 Z" fill="#F9C86F"/>
  <path d="M71.96,100.84 C71.22,101.94 68.6,105.95 67.9,106.06 C67.2,106.17 68.44,102.36 68.01,101.8 C67.15,100.67 69.65,98.09 70.08,97.45 C70.52,96.81 83.59,79.98 90.12,70.78 C93.79,65.62 97.66,59.39 101.08,53.89 C103.83,49.48 106.2,45.67 107.92,43.27 L109.06,41.68 C114.03,34.73 116.97,30.82 119.7,31.52 C120.46,31.71 121.1,32.27 121.39,33.24 C122.23,36.09 121.85,47.26 120.57,49.15 C119.97,50.04 118.49,51.37 115.21,54.29 C112.62,56.6 109.07,59.75 105.02,63.63 L103.11,65.45 C97.86,70.46 92.94,75.87 91.78,77.55 C91.07,78.67 89.23,85.14 88.43,91.08 C87.97,94.44 87.95,98.72 87.63,98.74 C86.75,98.8 83.8,97.38 83.92,95.87 C84.04,94.36 86,85.52 87.49,79.47 C80.14,89.36 72.79,99.6 71.96,100.84 Z M117.82,36.1 C117.58,35.12 113.64,40.45 111.51,43.43 L110.37,45.03 C108.7,47.34 106.42,51.49 103.71,55.85 C100.94,60.29 98.74,63.78 95.71,68.26 C97.57,66.45 98.79,65.46 101.05,63.3 L102.96,61.48 C107.05,57.57 110.62,54.39 113.23,52.07 C115.62,49.94 116.93,48.8 117.34,48.18 C118.01,46.83 118.55,39.78 117.82,36.1 Z" fill="#F4B13A"/>
  <path d="M49.96,121.31 C45.27,121.31 39.54,120.66 32.17,117.9 C7.49,108.65 2.71,94.27 3.65,87.04 C4.23,82.59 6.57,76.48 12.24,72.85 C18.75,68.7 28.09,68.26 39.23,71.99 C60.97,79.28 67.76,93.25 68.33,94.58 C68.9,95.91 70.67,98.42 69.4,99.17 C68.3,99.82 67.68,97.73 66.99,96.44 C66.3,95.16 65.11,93.02 62.62,90.13 C58.73,85.6 50.32,79.21 37.52,75.17 C27.49,71.99 20,72.83 14.54,76.32 C8.71,80.04 8.14,84.45 7.83,87.85 C7.3,93.53 11.54,106.05 33.9,114.43 C48.16,119.77 55.89,117.45 59.92,115.44 C62.86,113.97 64.56,111.48 65.01,108.67 C65.76,104.01 66.43,92.18 40.89,82.15 C32.78,78.96 23.57,78.72 22.98,78.68 C22.08,78.62 21.08,78.62 20.97,77.17 C20.86,75.77 22.06,75.58 22.65,75.55 C23.24,75.5 32,75.25 41.51,79 C69.73,90.13 69.67,103.77 68.76,109.38 C68.12,113.37 65.87,116.24 61.99,118.5 C59.43,120 55.27,121.31 49.96,121.31 Z" fill="#FFF6AD"/>
  <path d="M49.01,35.32 C49.01,35.32 40.32,39.7 39.95,40.35 C39.58,41 39.6,42.76 39.82,42.59 C41.8,40.99 48.09,38.75 63.37,46.26 C78.65,53.77 85.41,60.05 87.88,66.84 C88.6,68.82 89.23,70.61 89.57,72.57 C90.31,76.8 90.35,79.98 90.58,80.96 C90.96,80.73 91.8,79.62 91.8,79.62 L97.2,72.37 C97.2,72.37 87.17,50.22 86.61,49.76 C86.05,49.3 61.15,36.99 61.15,36.99 C61.15,36.99 49.29,34.95 49.01,35.32 Z" fill="#CC701F"/>
  <path d="M53.09,34.21 C53.09,34.21 41.13,38.67 40.3,39.13 C39.47,39.59 39.64,41.38 39.67,41.93 C41.5,39.85 45,39.22 48.8,39.59 C52.6,39.96 58.47,41.8 58.47,41.8 C58.47,41.8 60.04,43.75 62.82,44.67 C65.6,45.6 68.65,45.73 68.65,45.73 C68.65,45.73 83.16,54.97 86.8,60.79 C90.66,66.95 91.06,71.03 91.55,74.89 C91.78,76.65 91.76,79.3 91.81,79.63 C98.94,72.82 94.95,70.52 94.95,70.52 C94.95,70.52 95.04,59.13 94.02,58.39 C93,57.65 80.4,47.92 80.4,47.92 L78.92,43.47 L75.49,41.62 L90.77,33.56 C90.77,33.56 92.16,29.02 89.1,30.41 C86.04,31.8 71.86,37.61 71.86,37.61 L68.92,35.9 L63.76,33.54 C63.76,33.54 62.17,32.16 61.71,31.79 C61.25,31.42 51.97,16.15 51.97,16.15 L48.91,16.34 L55.3,33.66 L53.09,34.21 Z" fill="#F4B13A"/>
  <path d="M57.71,40.15 C57.71,40.15 57.35,38.5 57.46,37.59 C57.56,36.74 58.31,35.94 58.31,35.94 C58.31,35.94 54.54,26.99 53.9,25.32 C53.04,23.06 51.12,17.02 51.49,16.65 C51.86,16.28 54.55,23.97 55.6,26.12 C56.31,27.58 59.51,35.09 59.51,35.09 C59.51,35.09 60.67,34 61.2,33.63 C61.73,33.26 62.64,32.56 62.64,32.56 C62.64,32.56 58.74,25.56 57.29,21.6 C55.84,17.64 53.4,5.98 53.35,6.14 C53.3,6.3 50.62,7.74 49.71,8.06 C48.8,8.38 45.23,8.64 45.23,9.17 C45.23,9.7 47.07,19.78 49.37,25.07 C51.67,30.36 53.29,32.56 53.29,32.56 C53.29,32.56 48.07,31.64 46.2,32.44 C44.33,33.24 40.5,35.63 39.73,39.99 C39.73,40 43.62,37.95 48.75,38.43 C52.23,38.77 57.71,40.15 57.71,40.15 Z" fill="#FFF9AF"/>
  <path d="M66.63,44.06 C66.31,44.22 63.19,43.79 61.22,42.46 C59.96,41.61 58.54,39.93 59.4,37.84 C60.26,35.75 63.72,33.44 63.72,33.44 C63.72,33.44 64.76,33.03 66.76,33.84 C68.81,34.67 69.49,36.14 69.49,36.14 C69.49,36.14 66.83,39.19 66.45,40.79 C66.07,42.4 66.63,44.06 66.63,44.06 Z" fill="#FFF9AF"/>
  <path d="M69.1,39.94 C68.94,39.51 69.14,38.55 69.42,38.12 C69.99,37.22 70.3,37.1 70.3,37.1 C70.3,37.1 72.55,36.89 78.59,33.46 C84.63,30.04 90.3,26.56 91.64,25.49 C92.98,24.42 95.28,22.23 95.28,22.23 C95.28,22.23 98.11,24.26 99.18,26.51 C100.25,28.76 101.05,31.75 101.05,31.75 C101.05,31.75 90.62,37.63 86.24,39.29 C81.86,40.95 70.57,44.9 70.57,44.9 C70.57,44.9 69.39,43.32 69.39,42.63 C69.39,41.94 72.76,41.84 80.41,38.27 C84.27,36.47 88.75,33.83 88.43,33.14 C88.11,32.45 82.77,34.95 77.31,37.36 C75.47,38.18 69.1,39.94 69.1,39.94 Z" fill="#FFF9AF"/>
  <path d="M78.93,43.47 C78.93,43.47 77.36,44.97 76.45,45.77 C75.54,46.57 74.42,47.48 74.42,47.48 C74.42,47.48 78.46,49.81 82.09,52.69 C85.43,55.33 88.34,58.9 89.3,60.77 C90.26,62.64 92.16,66.48 92.85,73.11 C93.17,76.22 93.01,78.46 93.01,78.46 C93.01,78.46 94.44,77.72 96.35,74.57 C98.03,71.8 98.33,70.79 98.49,69.93 C98.65,69.07 98.78,63.39 96.19,57.58 C92.86,50.15 78.93,43.47 78.93,43.47 Z" fill="#FFF9AF"/>
</svg>
